!!!COM:	Obrecht, Jacob
!!!CDT:	1458-1505/07/
!!!OPR:	Missa Ave regina celorum
!!!ONM:	5
!!!OTL:	Agnus Dei
!!!AGN:	Mass; Agnus Dei
!!!SCT:	Obr1002e
!!!SCA:	Obr1002e
!!!voices-OPR:	4
!!!voices:	4
**kern	**kern	**kern	**kern
*staff4	*staff3	*staff2	*staff1
*Ivox	*Ivox	*Ivox	*Ivox
*I"Bassus	*I"Tenor	*I"Altus	*I"Discantus
*I'B	*I'T	*I'A	*I'D
*>[A,B,C]	*>[A,B,C]	*>[A,B,C]	*>[A,B,C]
*>A	*>A	*>A	*>A
*clefF4	*clefGv2	*clefGv2	*clefG2
*k[b-]	*k[b-]	*k[b-]	*k[b-]
*M3/1	*M3/1	*M3/1	*M3/1
*met(O)	*met(O)	*met(O)	*met(O)
!!section: Agnus Dei I
!!!OMD: Agnus Dei I
=1-	=1-	=1-	=1-
0C	1.G	0.c	0g
.	1E	.	.
1AA	.	.	1a
.	2C/	.	.
=2	=2	=2	=2
1FF	1C	1c	1a
1GG	2r	2B-\	2.b-\
.	2G/	1d	.
.	.	.	4a/
2BB-/	2D/	.	4g/
.	.	.	4f/
2AA/	2E/	2c\	[2a/
=3	=3	=3	=3
1FF	1F	1A	4a/]
.	.	.	4b-\
.	.	.	2cc\
2r	1D	1B-	2f/
2GG/	.	.	2b-\
2AA/	1r	2c\	2a/
2BB-/	.	2d\	4g/
.	.	.	4f/
=4	=4	=4	=4
0.C;	0.G;	0.c;	0.e;
=5	=5	=5	=5
1F	2.D/	2A/	0.r
.	.	2B-\	.
.	4E/	.	.
1F	4F/	2A/	.
.	4G/	.	.
.	2.A/	2.d\	.
1E	.	.	.
.	4G/	4c\	.
.	[2G/	[2c\	.
=6	=6	=6	=6
1D	2G/]	2c\]	1r
.	2F/	2Bni\	.
2.C/	2G/	1.c	1e
.	2.E/	.	.
4BB-/	.	.	.
2AA/	.	.	1e
.	4F/	.	.
2GG/	2G/	2B-\	.
=7	=7	=7	=7
2FF/	1C	2A/	2f/
1C	.	4G/	1e
.	.	4F/	.
.	2r	2E/	.
2AA/	1C	1F	2c/
1GG	.	.	1g
.	2BB-/	2E/	.
=8	=8	=8	=8
0.FF	1C	2F/	2a/
.	.	2.A/	2.cc\
.	0F	.	.
.	.	4B-\	4b-\
.	.	2c\	2.a/
.	.	2d\	.
.	.	.	4b-\
.	.	[2c\	2a/
=9	=9	=9	=9
2r	2.C/	4c\]	2.e/
.	.	4B-\	.
1C	.	2.G/	.
.	4D/	.	4f/
.	2E/	.	2g/
.	.	4A/	.
2BB-/	2F/	2.B-\	1d
1GG	1G	.	.
.	.	8A/L	.
.	.	8G/J	.
.	.	2B-\	2e/
=10	=10	=10	=10
1FF	2C/	1A	2f/
.	2.F/	.	2.a/
1BB-	.	2F/	.
.	4E/	.	4g/
.	1D	2G/	1g
1AA	.	2A/	.
.	2C/	2c\	2f/
=11	=11	=11	=11
2GG/	2D/	2B-\	2.g/
1C	2.E/	2G/	.
.	.	.	4f/
.	.	2r	2e/
.	4F/	.	.
2BB-/	2G/	2B-\	2d/
1C	2E/	2A/	1c
.	4D/	[2G/	.
.	4C/	.	.
=12	=12	=12	=12
2GG/	2D/	2G/]	2r
2AA/	2C/	2F/	2cc\
2GG/	2D/	1G	4b-\
.	.	.	4a/
1C	4E/	.	4g/
.	4F/	.	4f/
.	4G/	1r	4e/
.	4A/	.	4c/
2BB-/	2B-\	.	[2f/
=13	=13	=13	=13
1C	1G	1.c	2f/]
.	.	.	2e/
1FF	1F	.	[0f
.	.	2C/	.
2BB-/	2r	2D/	.
2AA/	2c\	2C/	.
=14	=14	=14	=14
1FF	2.A/	1c	1f]
.	4B-\	.	.
2r	2.c\	1A	1r
2C/	.	.	.
.	4C/	.	.
2AA/	2C/	2F/	1r
2BB-/	2D/	2G/	.
=15	=15	=15	=15
0C	2.E/	2A/	2r
.	.	1.c	2g/
.	4F/	.	.
.	2G/	.	2.e/
.	2A/	.	.
.	.	.	4f/
2r	1B-	1d	1g
2GG/	.	.	.
=16	=16	=16	=16
2AA/	2A/	2c\	2r
2BB-/	2F/	2B-\	2d/
1C	1.c	2G/	2.e/
.	.	1e-	.
.	.	.	4f/
2r	.	.	1g
2GG/	2B-\	2d\	.
=17	=17	=17	=17
2AA/	2A/	2c\	1r
2BB-/	2D/	2d\	.
2.C/	2.E/	2.G/	2r
.	.	.	1g
4BB-/	4F/	4A/	.
2GG/	2G/	2B-\	.
2FF/	2C/	2A/	[2a/
=18	=18	=18	=18
1AA	2r	1F	4a/]
.	.	.	4b-\
.	2C/	.	2cc\
1GG	1D	1G	2.b-\
.	.	.	8a/L
.	.	.	8g/J
2r	1D	2A/	1f
2BB-/	.	2B-\	.
=19	=19	=19	=19
2AA/	2C/	2.c\	2r
1C	2.E/	.	1g
.	.	8B-/L	.
.	.	8A/J	.
.	.	2G/	.
.	4D/	.	.
2AA/	2C/	1F	2a/
1GG	2.BB-/	.	3b-\V
.	.	.	3g/
.	.	2E/	.
.	.	.	3b-\Z
.	4C/	.	.
=20	=20	=20	=20
2r	2D/	1F	3a/V
.	.	.	3f/
2FF/	2C/	.	.
.	.	.	3a/Z
2EE/	2r	2B-\	2g/
2FF/	2.c\	2A/	1f
1C	.	1G	.
.	4B-\	.	.
.	2c\	.	2e/
=21	=21	=21	=21
[0.FFl	0.A	[0.Fl	[0.fl
=22	=22	=22	=22
0.FF]	0.cl	0.F]	0.f]
!!LO:LB:i:g=z
=23||	=23||	=23||	=23||
*>B	*>B	*>B	*>B
*clefF4	*clefGv2	*clefGv2	*clefG2
*k[b-]	*k[b-]	*k[b-]	*k[b-]
*M2/1	*M2/1	*M2/1	*M2/1
*met(C|)	*met(C|)	*met(C|)	*met(C|)
!!section: Agnus Dei II
!!!OMD: Agnus Dei II
1.C	0r	2.c\	1.g
.	.	4d\	.
.	.	2e\	.
2AA/	.	[2f\	2a/
=24	=24	=24	=24
1GG	1r	2f\]	1b-
.	.	2e\	.
1FF	[1c	1f	[1a
=25	=25	=25	=25
1r	2c\]	2e\	2a/]
.	2A/	4d\	2cc\
.	.	4c\	.
1GG	1G	[1d	1b-
=26	=26	=26	=26
2BB-/	1F	2d\]	2r
2AA/	.	2.c\	2.a/
1FF	1r	.	.
.	.	4B-\	4b-\
.	.	2A/	2cc\
=27	=27	=27	=27
0r	1G	2G/	2.b-\
.	.	1d	.
.	.	.	4a/
.	2B-\	.	4g/
.	.	.	4f/
.	2A/	2c\	[2a/
=28	=28	=28	=28
2r	1F	2.A/	2a/]
2FF/	.	.	4g/
.	.	4B-\	4f/
2AA/	1r	2c\	2e/
2BB-/	.	2B-\	2d/
=29	=29	=29	=29
1C	2r	2G/	2e/
.	2G/	1c	2g/
1r	2A/	.	1f
.	2B-\	2d\	.
=30	=30	=30	=30
0C;	0c;	0G;	0e;
=31	=31	=31	=31
0F	0r	2.A/	0r
.	.	4B-\	.
.	.	4c\	.
.	.	4A/	.
.	.	[2d\	.
=32	=32	=32	=32
1E	1r	2d\]	1r
.	.	2c#i\	.
1D	[1f	1d	2.a/
.	.	.	4b-\
=33	=33	=33	=33
0r	1f]	2r	4cc\
.	.	.	4a/
.	.	2d\	1dd
.	1e	2e\	.
.	.	2g\	2cc\
=34	=34	=34	=34
0r	0d	1.f	2dd\
.	.	.	4cc\
.	.	.	4b-\
.	.	.	1a
.	.	4e\	.
.	.	4d\	.
=35	=35	=35	=35
1C	0r	1e	1g
4C/	.	2r	1r
4BB-/	.	.	.
4AA/	.	[2c\	.
4GG/	.	.	.
=36	=36	=36	=36
2FF/	0r	4c\]	0r
.	.	4B-\	.
1C	.	1A	.
2BB-/	.	[2G/	.
=37	=37	=37	=37
2C/	0r	4G/]	1r
.	.	4F/	.
2AA/	.	1F	.
1GG	.	.	2r
.	.	2E/	2g/
=38	=38	=38	=38
1FF	1c	1F	1.a
1r	4c\	1r	.
.	4B-\	.	.
.	4A/	.	[2cc\
.	4G/	.	.
=39	=39	=39	=39
0r	2F/	0r	4cc\]
.	.	.	4b-\
.	1c	.	2a/
.	.	.	2.g/
.	2B-\	.	.
.	.	.	4f/
=40	=40	=40	=40
1r	2c\	0r	4e/
.	.	.	4d/
.	2A/	.	1f
2r	1G	.	.
2C/	.	.	2e/
=41	=41	=41	=41
2AA/	1F	2r	1f
2BB-/	.	1F	.
1GG	1r	.	1g
.	.	2E/	.
=42	=42	=42	=42
1FF	2r	4F/	1.a
.	.	4G/	.
.	2c\	4A/	.
.	.	4B-\	.
2r	2A/	2c\	.
[2BB-/	2B-\	[2d\	2f/
=43	=43	=43	=43
2BB-/]	1G	2d\]	2g/
2GG/	.	2B-\	2b-\
1AA	1F	1c	1a
=44	=44	=44	=44
1GG	2r	2B-\	2.d/
.	1B-	1d	.
.	.	.	4e/
1r	.	.	2f/
.	2G/	4c\	2g/
.	.	4B-\	.
=45	=45	=45	=45
2r	1A	2.c\	1e
1C	.	.	.
.	.	4d\	.
.	1G	2e\	2r
2BB-/	.	2d\	[2g/
=46	=46	=46	=46
1C	2r	2r	2g/]
.	1c	1G	2e/
2r	.	.	1d
2GG/	2Bni\	[2G/	.
=47	=47	=47	=47
1AA	1c	2G/]	2.c/
.	.	2F/	.
.	.	.	4d/
2GG/	1r	1G	1e
[2C/	.	.	.
=48	=48	=48	=48
2C/]	1r	2A/	2c/
2BB-/	.	2B-\	1f
1C	2r	2G/	.
.	2G/	[2c\	2e/
=49	=49	=49	=49
1FF	1A	2c\]	1f
.	.	4B-\	.
.	.	4A/	.
1r	2G/	2B-\	2e/
.	[2c\	2A/	4d/
.	.	.	4c/
=50	=50	=50	=50
1r	2c\]	1G	1d
.	2Bni\	.	.
2r	1c	2A/	1c
[2C/	.	[2G/	.
=51	=51	=51	=51
2C/]	0r	2G/]	1r
2AA/	.	1F	.
1GG	.	.	2r
.	.	2E/	2g/
=52	=52	=52	=52
1FF	2r	2.F/	2.a/
.	1c	.	.
.	.	4G/	8g/L
.	.	.	8f/J
1r	.	4A/	4e/
.	.	4B-\	4c/
.	2A/	2c\	[2f/
=53	=53	=53	=53
2r	1G	2B-\	2f/]
2C/	.	1c	2e/
2AA/	1F	.	2f/
2BB-/	.	4B-\	2d/
.	.	4A/	.
=54	=54	=54	=54
1C	2r	2G/	1e
.	2c\	4F/	.
.	.	4E/	.
2r	2A/	2F/	1r
2GG/	2B-\	2D/	.
=55	=55	=55	=55
2.AA/	1c	1C	1e
4BB-/	.	.	.
1C	2r	1E	1e
.	2G/	.	.
=56	=56	=56	=56
2r	2A/	1D	2f/
2GG/	2B-\	.	2g/
2.AA/	1c	2C/	1e
.	.	[2c\	.
4BB-/	.	.	.
=57	=57	=57	=57
2.C/	0r	4c\]	2.e/
.	.	4B-\	.
.	.	4G/	.
4BB-/	.	4A/	4f/
2GG/	.	2B-\	2g/
2FF/	.	4c\	[2a/
.	.	4B-\	.
=58	=58	=58	=58
1AA	1r	4A/	4a/]
.	.	4G/	4b-\
.	.	1F	4cc\
.	.	.	4a/
1GG	2r	.	1b-
.	2G/	2E/	.
=59	=59	=59	=59
0r	2A/	2.F/	2r
.	2B-\	.	1a
.	.	4G/	.
.	2.c\	4A/	.
.	.	4B-\	.
.	.	2c\	[2g/
.	4B-\	.	.
=60	=60	=60	=60
2r	2G/	1B-	4g/]
.	.	.	4f/
2BB-/	2F/	.	2d/
2AA/	1A	1c	2c/
[2C/	.	.	[2e/
=61	=61	=61	=61
2C/]	1G	2r	4e/]
.	.	.	4d/
4BB-/	.	2C/	4e/
4AA/	.	.	4f/
1GG	2r	2D/	1g
.	2B-\	2E/	.
=62	=62	=62	=62
1FF	2A/	2F/	2.c/
.	1c	2.A/	.
.	.	.	4d/
1r	.	.	2e/
.	.	4B-\	.
.	4B-\	2c\	[2f/
.	4A/	.	.
=63	=63	=63	=63
2r	1G	2B-\	2f/]
2C/	.	2c\	2e/
2D\	1F	2A/	1f
[2F\	.	[2d\	.
=64	=64	=64	=64
4F\]	0r	4d\]	0r
4E\	.	4c\	.
4D\	.	4B-\	.
4C/	.	4A/	.
2D\	.	2B-\	.
[2C/	.	2A/	.
=65	=65	=65	=65
4C/]	0r	2G/	1r
4BB-/	.	.	.
2AA/	.	1F	.
1GG	.	.	2r
.	.	2E/	2g/
=66	=66	=66	=66
1FF	2r	1F	2a/
.	2c\	.	2cc\
1r	2d\	2r	2b-\
.	[2f\	[2F/	[2a/
=67	=67	=67	=67
1r	4f\]	2F/]	4a/]
.	4e\	.	4g/
.	4d\	1G	1b-
.	4c\	.	.
2r	2d\	.	.
[2FF/	[2c\	2A/	[2a/
=68	=68	=68	=68
4FF/]	4c\]	2F/	4a/]
4GG/	4B-\	.	4g/
4AA/	2A/	2.c\	1f
4BB-/	.	.	.
1C	1G	.	.
.	.	4B-\	.
.	.	2c\	2e/
=69	=69	=69	=69
[0FFl	[0Fl	2d\	[0fl
.	.	2c\	.
.	.	2.A/	.
.	.	4B-\	.
=70	=70	=70	=70
0FF]	0F]	0cl	0f]
!!LO:LB:i:g=z
=71||	=71||	=71||	=71||
*>C	*>C	*>C	*>C
*clefF4	*clefGv2	*clefGv2	*clefG2
*k[b-]	*k[b-]	*k[b-]	*k[b-]
*M2/1	*M2/1	*M2/1	*M2/1
*met(C)	*met(C)	*met(C)	*met(C)
*rscale:1/2	*	*	*
!!section: Agnus Dei III
!!!OMD: Agnus Dei III
!LO:N:vis=0	!	!	!
[y0C	1G	0r	1r
.	2E/	.	1g
.	[2G/	.	.
=72-	=72	=72	=72
0C]yy	4G/]	1c	2e/
.	4F/	.	.
.	4E/	.	2.g/
.	4D/	.	.
.	1C	2G/	.
.	.	.	4f/
.	.	[2c\	4e/
.	.	.	4d/
=73	=73	=73	=73
0F	2r	4c\]	2c/
.	.	4B-\	.
.	2.c\	4A/	2.f/
.	.	4G/	.
.	.	1F	.
.	4B-\	.	4e/
.	2A/	.	4c/
.	.	.	4d/
=74-	=74	=74	=74
1E	1G	2r	2.e/
.	.	2.G/	.
.	.	.	4f/
1C	1E	.	4g/
.	.	4F/	4a/
.	.	4G/	[2g/
.	.	4A/	.
=75	=75	=75	=75
0BB-	2.D/	1B-	2g/]
.	.	.	4f/
.	4E/	.	4e/
.	2F/	1B-	1d
.	2G/	.	.
=76-	=76	=76	=76
0C	2E/	2G/	2c/
.	2.G/	2.c\	2.e/
.	4F/	4B-\	4d/
.	2E/	4A/	2c/
.	.	4G/	.
=77	=77	=77	=77
1r	2D/	2F/	2Bni/
.	2C/	2E/	1c
1GG	1D	1G	.
.	.	.	2Bni/
=78-	=78	=78	=78
1AA	2.C/	2E/	1c
.	.	2F/	.
.	4D/	.	.
[1C	4E/	2E/	2r
.	4F/	.	.
.	[2G/	[2c\	[2e/
=79	=79	=79	=79
1C]	2G/]	4c\]	2e/]
.	.	4B-\	.
.	2F/	1A	2f/
1BB-	1D	.	1g
.	.	2G/	.
=80-	=80	=80	=80
1AA	2r	2A/	1c
.	2.A/	2.c\	.
1FF	.	.	1f
.	4B-\	4B-\	.
.	2c\	2A/	.
=81	=81	=81	=81
1GG	1B-	1G	2e/
.	.	.	2d/
1AA	1A	2.E/	1c
.	.	4F/	.
=82-	=82	=82	=82
0BB-	0D	2G/	2B-/
.	.	2F/	1d
.	.	1G	.
.	.	.	4c/
.	.	.	4B-/
=83	=83	=83	=83
0AA	0E	0A	2c/
.	.	.	1d
.	.	.	2c#i/
=84-	=84	=84	=84
0r	1D	1F	4d/
.	.	.	4e/
.	.	.	4f/
.	.	.	4g/
.	4D/	2r	2a/
.	4E/	.	.
.	4F/	2D/	2b-\
.	4G/	.	.
=85	=85	=85	=85
!LO:N:vis=0	!	!	!
[y0D	2A/	2.F/	2a/
.	2B-\	.	2f/
.	.	4G/	.
.	2A/	2A/	2r
.	[2d\	2B-\	2f/
=86-	=86	=86	=86
0D]yy	2d\]	2A/	2d/
.	4c\	2.d\	1f
.	4B-\	.	.
.	2A/	.	.
.	.	4c\	.
.	2F/	4A/	4e/
.	.	4B-\	4d/
=87	=87	=87	=87
1C	2G/	1.c	1e
.	2.A/	.	.
1AA	.	.	1c
.	4G/	.	.
.	4F/	4B-\	.
.	4E/	4A/	.
=88-	=88	=88	=88
0BB-	1D	2G/	2d/
.	.	2F/	1f
.	2r	1G	.
.	2D/	.	4e/
.	.	.	4d/
=89	=89	=89	=89
0AA	2E/	0A	2c/
.	2F/	.	2.cc\
.	2C/	.	.
.	.	.	4b-\
.	[2F/	.	[2a/
=90-	=90	=90	=90
1r	2F/]	0r	2a/]
.	4E/	.	4g/
.	4D/	.	4f/
1GG	1E	.	1g
=91	=91	=91	=91
0FF	1.F	1c	1.a
.	.	4c\	.
.	.	4B-\	.
.	2C/	4A/	[2f/
.	.	4G/	.
=92-	=92	=92	=92
1BB-	1D	2F/	2f/]
.	.	2G/	4e/
.	.	.	4d/
1AA	1E	2A/	1c
.	.	[2c\	.
=93	=93	=93	=93
0FF	1.F	4c\]	2r
.	.	4B-\	.
.	.	1A	2.cc\
.	.	.	4b-\
.	4E/	4G/	[2a/
.	4D/	4F/	.
=94-	=94	=94	=94
1AA	1C	2E/	4a/]
.	.	.	4g/
.	.	2.c\	1e
[1C	1r	.	.
.	.	4B-\	.
.	.	[2A/	2e/
=95	=95	=95	=95
1C]	1r	4A/]	2c/
.	.	4G/	.
.	.	2E/	2e/
1BB-	2.D/	2F/	1d
.	.	2G/	.
.	4E/	.	.
=96-	=96	=96	=96
0AA	2F/	2A/	2c/
.	1E	1c	2.A/
.	.	.	4B-/
.	4D/	4B-\	2c/
.	4C/	4A/	.
=97	=97	=97	=97
0GG	2BB-/	4B-\	2d/
.	.	4A/	.
.	1C	4G/	4c/
.	.	4F/	4d/
.	.	2E/	4e/
.	.	.	4d/
.	2BB-/	2D/	4c/
.	.	.	4B-/
=98-	=98	=98	=98
[0FF	2C/	0F	2A/
.	2.c\	.	2.a/
.	4B-\	.	4b-\
.	4A/	.	[2cc\
.	4G/	.	.
=99	=99	=99	=99
0FF]	2A/	1r	4cc\]
.	.	.	4b-\
.	2B-\	.	1b-
.	1c	[1f	.
.	.	.	2a/
=100-	=100	=100	=100
1r	1B-	1f]	1b-
[1C	1r	[1e	2a/
.	.	.	[2g/
=101	=101	=101	=101
1C]	1r	2e\]	2g/]
.	.	4d\	4f/
.	.	4c\	4e/
1BB-	1B-	1f	1d
=102-	=102	=102	=102
0C	2A/	3%2eV	4c/
.	.	.	4d/
.	1G	.	4e/
.	.	3%2c	.
.	.	.	4f/
.	.	.	2g/
.	.	3%2eZ	.
.	4F/	.	[2a/
.	4E/	.	.
=103	=103	=103	=103
0D	1F	3%2dV	4a/]
.	.	.	4g/
.	.	.	4f/
.	.	3%2A	.
.	.	.	4e/
.	2r	.	1f
.	.	3%2B-Z	.
.	2F/	.	.
=104-	=104	=104	=104
[0C	2A/	1c	2e/
.	2G/	.	2.cc\
.	2.c\	2r	.
.	.	.	4b-\
.	.	[2e-\	2a/
.	4B-\	.	.
=105	=105	=105	=105
0C]	2c\	4e-\]	2g/
.	.	4d\	.
.	2A/	4c\	1f
.	.	4B-\	.
.	1G	1c	.
.	.	.	2e/
=106-	=106	=106	=106
0F	1F	1A	0f
.	1D	1B-	.
=107	=107	=107	=107
!LO:N:vis=1.	!	!	!
[y0E	2.C/	2c\	1r
.	.	2.C/	.
.	4D/	.	.
.	4E/	.	[1g
.	4F/	4D/	.
.	2G/	4E/	.
.	.	4F/	.
=108-	=108	=108	=108
1E]yy	2C/	2G/	0g]
.	2G/	1C	.
[1C	2E/	.	.
.	[2G/	[2e\	.
=109	=109	=109	=109
1C]	4G/]	4e\]	1e
.	4F/	4d\	.
.	2E/	1c	.
1F	1D	.	2.f/
.	.	2Bn\	.
.	.	.	4g/
=110-	=110	=110	=110
1E	1C	1c	2a/
.	.	.	2g/
[1D	2r	2.d\	2f/
.	[2F/	.	[2a/
.	.	4c\	.
=111	=111	=111	=111
2D\]	4F/]	2A/	4a/]
.	4G/	.	4g/
2C/	4A/	2.c\	1e
.	4F/	.	.
!LO:N:vis=1	!	!	!
[y1C	2G/	.	.
.	.	4B-\	.
.	2E/	2G/	[2g/
=112-	=112	=112	=112
1C]yy	2G/	1c	4g/]
.	.	.	4f/
.	2A/	.	2e/
1BB-	1B-	1d	2d/
.	.	.	[2f/
=113	=113	=113	=113
0C	1G	1c	2f/]
.	.	.	4e/
.	.	.	4d/
.	1G	2r	1e
.	.	2c\	.
=114-	=114	=114	=114
0FF	2F/	2.c\	0f
.	2.c\	.	.
.	.	4B-\	.
.	.	2A/	.
.	4B-\	.	.
.	[2A/	2F/	.
=115	=115	=115	=115
1AA	4A/]	1c	1r
.	4G/	.	.
.	1F	.	.
1GG	.	1r	1g
.	2E/	.	.
=116-	=116	=116	=116
0FF	2.F/	2.c\	2a/
.	.	.	2.cc\
.	4G/	4B-\	.
.	4A/	2.A/	.
.	4B-\	.	4b-\
.	[2c\	.	[2a/
.	.	4G/	.
=117	=117	=117	=117
1r	2c\]	1F	4a/]
.	.	.	4g/
.	2A/	.	1f
1C	1G	2r	.
.	.	2c\	2e/
=118-	=118	=118	=118
1AA	1F	1c	1f
1BB-	1F	1B-	1d
=119	=119	=119	=119
!LO:N:vis=0	!	!	!
[y0C	2E/	2.G/	2e/
.	2C/	.	2.g/
.	.	4F/	.
.	2.G/	2E/	.
.	.	.	4f/
.	.	2C/	4e/
.	4F/	.	4d/
=120-	=120	=120	=120
0C]yy	4E/	2.G/	2c/
.	4D/	.	.
.	2C/	.	2.g/
.	.	4F/	.
.	1G	2E/	.
.	.	.	4f/
.	.	2C/	2e/
=121	=121	=121	=121
1r	2F/	2D/	2d/
.	2E/	2E/	1c
1GG	1D	1G	.
.	.	.	2Bni/
=122-	=122	=122	=122
1AA	2C/	2E/	1c
.	2E/	2A/	.
1BB-	2D/	2F/	1d
.	2F/	2B-\	.
=123	=123	=123	=123
0C	2E/	2G/	2.e/
.	2C/	2.c\	.
.	.	.	4f/
.	2r	.	2g/
.	.	4B-\	.
.	2c\	2A/	2a/
=124-	=124	=124	=124
1r	2d\	2G/	2b-\
.	2c\	2A/	1cc
1GG	2.d\	1G	.
.	.	.	2bni\
.	4c\	.	.
=125	=125	=125	=125
1AA	1c	1E	2cc\
.	.	.	2c/
1BB-	1r	1r	1d
=126-	=126	=126	=126
1.C	2.G/	2.E/	2.c/
.	4F/	4F/	4d/
.	2E/	4G/	4e/
.	.	4A/	4f/
2BB-/	2D/	[2B-\	[2g/
=127	=127	=127	=127
1GG	1E	2B-\]	4g/]
.	.	.	4a/
.	.	4A/	4b-\
.	.	4G/	4cc\
1FF	[1F	2c\	1a
.	.	[2c\	.
=128-	=128	=128	=128
0AA	2F/]	4c\]	2r
.	.	4B-\	.
.	4E/	4A/	2.cc\
.	4D/	4G/	.
.	1C	1F	.
.	.	.	4b-\
.	.	.	4a/
.	.	.	4g/
=129	=129	=129	=129
0GG	0D	2.G/	2.b-\
.	.	4A/	4a/
.	.	4B-\	4g/
.	.	4c\	4f/
.	.	2d\	[2g/
=130-	=130	=130	=130
1r	1r	2B-\	2g/]
.	.	1A	2c/
1BB-	1D	.	1d
.	.	2G/	.
=131	=131	=131	=131
1AA	1.E	1A	2.c/
.	.	.	4d/
!LO:N:vis=2.	!	!	!
[y1C	.	2G/	4e/
.	.	.	4f/
.	4D/	[2c\	[2g/
.	4C/	.	.
=132-	=132	=132	=132
2C/]yy	1.E	4c\]	2g/]
.	.	4B-\	.
2BB-/	.	2G/	1c
1AA	.	1c	.
.	4D/	.	[2cc\
.	4C/	.	.
=133	=133	=133	=133
0GG	0G	0d	2cc\]
.	.	.	4bni\
.	.	.	4a/
.	.	.	1bni
=134-	=134	=134	=134
1r	1A	0c	2.cc\
.	.	.	4b-\
1FF	1F	.	4a/
.	.	.	4g/
.	.	.	2a/
=135	=135	=135	=135
1EE	1G	0r	2g/
.	.	.	1b-
1FF	1A	.	.
.	.	.	[2a/
=136-	=136	=136	=136
0C	0G	0c	4a/]
.	.	.	4g/
.	.	.	1f
.	.	.	2e/
=137	=137	=137	=137
0FFl	0Fl	0cl	0fl
*rscale:1	*	*	*
==	==	==	==
*-	*-	*-	*-
!!!RDF**kern: l=long note in original notation
!!!RDF**kern: i=editorial accidental
!!!RDF**kern: V=start of tuplet marker
!!!RDF**kern: Z=end of tuplet marker
!!!ENC:	Jesse Rodin 8/27/2013
!!!END:	2013/08/27/
!!!EED:	Jesse Rodin
!!!EEV:	2013/08/29/
!!!ONB:	Translated from MusicXML and edited on 2013/08/29/ by Craig Sapp
!!muse2ps: T^@{OPR}^u^@{ONM}{. }@{OTL}^C^@{COM}^i2I150v85,85,85,150Q16
